svgs/themed_icon_calendar_21.svg

<svg height="192" width="192" xmlns="http://www.w3.org/2000/svg"><path d="M146 30H46c-8.837 0-16 7.163-16 16v100c0 8.837 7.163 16 16 16h75.373a16 16 0 0 0 11.313-4.686l24.628-24.628A16 16 0 0 0 162 121.373V46c0-8.837-7.163-16-16-16Z" stroke="#000" stroke-width="12" fill="none"/><path d="M63.484 120c-1.824 0-3.144-.408-3.96-1.224-.816-.864-1.224-2.112-1.224-3.744 0-1.056.264-2.04.792-2.952.528-.912 1.248-1.848 2.16-2.808l13.536-14.256c2.016-2.16 3.456-4.08 4.32-5.76.912-1.68 1.368-3.36 1.368-5.04 0-4.32-2.664-6.48-7.992-6.48-1.392 0-2.832.192-4.32.576-1.44.384-2.952 1.056-4.536 2.016-1.296.768-2.496.936-3.6.504-1.056-.432-1.848-1.176-2.376-2.232a5.23 5.23 0 0 1-.36-3.312c.288-1.2 1.08-2.184 2.376-2.952a24.478 24.478 0 0 1 6.912-2.88c2.496-.672 4.968-1.008 7.416-1.008 5.664 0 9.984 1.272 12.96 3.816 3.024 2.496 4.536 6.072 4.536 10.728 0 3.072-.72 6.024-2.16 8.856-1.392 2.784-3.696 5.808-6.912 9.072l-9.792 9.936h16.704c3.12 0 4.68 1.512 4.68 4.536 0 3.072-1.56 4.608-4.68 4.608H63.484Zm43.1 0c-3.168 0-4.752-1.536-4.752-4.608 0-3.024 1.584-4.536 4.752-4.536h7.272V81.624l-5.256 3.168c-1.392.816-2.64 1.032-3.744.648s-1.944-1.104-2.52-2.16c-.576-1.056-.744-2.184-.504-3.384.24-1.248 1.032-2.304 2.376-3.168l10.008-6.048a17.78 17.78 0 0 1 3.024-1.512c1.056-.384 2.088-.576 3.096-.576 1.44 0 2.568.384 3.384 1.152.864.768 1.296 1.896 1.296 3.384v37.728h6.552c3.12 0 4.68 1.512 4.68 4.536 0 3.072-1.56 4.608-4.68 4.608h-24.984Z"/></svg>

<?xml version="1.0" encoding="UTF-8" standalone="no"?><svg xmlns:android="http://schemas.android.com/apk/res/android" height="192" width="192" xmlns="http://www.w3.org/2000/svg">
  <path d="M146,30H46C37.163,30 30,37.163 30,46V146C30,154.837 37.163,162 46,162H121.373C125.616,162 129.686,160.314 132.686,157.314L157.314,132.686C160.314,129.686 162,125.616 162,121.373V46C162,37.163 154.837,30 146,30Z" fill="#000000" fill-opacity="0.0" stroke="#000000" stroke-width="12"/>
  <path d="M63.484,120C61.66,120 60.34,119.592 59.524,118.776C58.708,117.912 58.3,116.664 58.3,115.032C58.3,113.976 58.564,112.992 59.092,112.08C59.62,111.168 60.34,110.232 61.252,109.272L74.788,95.016C76.804,92.856 78.244,90.936 79.108,89.256C80.02,87.576 80.476,85.896 80.476,84.216C80.476,79.896 77.812,77.736 72.484,77.736C71.092,77.736 69.652,77.928 68.164,78.312C66.724,78.696 65.212,79.368 63.628,80.328C62.332,81.096 61.132,81.264 60.028,80.832C58.972,80.4 58.18,79.656 57.652,78.6C57.172,77.544 57.052,76.44 57.292,75.288C57.58,74.088 58.372,73.104 59.668,72.336C61.78,71.04 64.084,70.08 66.58,69.456C69.076,68.784 71.548,68.448 73.996,68.448C79.66,68.448 83.98,69.72 86.956,72.264C89.98,74.76 91.492,78.336 91.492,82.992C91.492,86.064 90.772,89.016 89.332,91.848C87.94,94.632 85.636,97.656 82.42,100.92L72.628,110.856H89.332C92.452,110.856 94.012,112.368 94.012,115.392C94.012,118.464 92.452,120 89.332,120H63.484ZM106.584,120C103.416,120 101.832,118.464 101.832,115.392C101.832,112.368 103.416,110.856 106.584,110.856H113.856V81.624L108.6,84.792C107.208,85.608 105.96,85.824 104.856,85.44C103.752,85.056 102.912,84.336 102.336,83.28C101.76,82.224 101.592,81.096 101.832,79.896C102.072,78.648 102.864,77.592 104.208,76.728L114.216,70.68C115.224,70.056 116.232,69.552 117.24,69.168C118.296,68.784 119.328,68.592 120.336,68.592C121.776,68.592 122.904,68.976 123.72,69.744C124.584,70.512 125.016,71.64 125.016,73.128V110.856H131.568C134.688,110.856 136.248,112.368 136.248,115.392C136.248,118.464 134.688,120 131.568,120H106.584Z" fill="#000000"/>
</svg>
